X: 30
T: 27. WALTZING WITH THE ONE I LOVE
C: Sarah Armstrong
B: Sam Bayard, "Hill Country Tunes" 1944 #27
S: Played by Mrs Sarah Armstrong, (near) Derry, PA, Nov 18 1943. Composed by herself.
R: waltz
M: 3/4
L: 1/8
Z: 2010 John Chambers <jc:trillian.mit.edu>
K: D
Ad |\
[f4A4] [f2A2] | e2 d2 "a."B2 | A3 B AG | F2 D2 F2 |\
[e4A4] [e2A2] | c2 B2 A2 | d3 c "b."d>B | A2 F2 A2 |
[f4A4] [f2A2] | e2 d2 "a."B2 | A3 B AG | F2 D2 F2 |\
[e4A4] [e2A2] | c2 B2 c2 | d6- | d2 z2 FG |
A3 B A>G | F2 D2 F2 | A2 F2 A2 | d6 |\
A4 cB | A2 c2 B2 | A2 c2 B2 A2 F2 G2 |
A3 B A>G | F2 D2 F2 | A2 F2 A2 | d4 "c."cd |\
[e4A4] [e2A2] | c2 B2 c2 | d6- | d2 z2 |]
P: VAR:
"a."cB || "b."dB || "c."d2 |] y6 y6 y6 y6 y6 y6 y6 y6 y6 y6

%%sep 2 1 500
%%sep 1 1 500

